flaticon/constructions/drawing-1.svg

<svg xmlns="http://www.w3.org/2000/svg" width="32" height="32" viewBox="0 0 24 24">
    <path d="M10.800781 19.503906L10.800781 2.160156C10.800781 1.199219 10 .398438 9.039062.398438L6.160156.398438C5.199219.398438 4.398438 1.199219 4.398438 2.160156L4.398438 19.601562C4.398438 19.726562 4.445312 19.832031 4.523438 19.902344L7.28125 23.839844C7.359375 23.921875 7.480469 24 7.601562 24 7.71875 24 7.839844 23.921875 7.921875 23.800781L10.617188 19.945312C10.730469 19.878906 10.800781 19.753906 10.800781 19.601562 10.804688 19.566406 10.804688 19.535156 10.800781 19.503906zM5.199219 19.199219L5.199219 6.398438 7.199219 6.398438 7.199219 19.199219zM10 5.601562L5.199219 5.601562 5.199219 4 10 4zM8 6.398438L10 6.398438 10 19.199219 8 19.199219zM5.199219 2.160156C5.199219 1.640625 5.640625 1.199219 6.160156 1.199219L9.039062 1.199219C9.558594 1.199219 10 1.640625 10 2.160156L10 3.199219 5.199219 3.199219zM7.601562 22.921875L5.558594 20 9.640625 20zM18.398438 0L14.398438 0C13.71875 0 13.199219.519531 13.199219 1.199219L13.199219 23.039062C13.199219 23.558594 13.640625 24 14.160156 24L18.679688 24C19.199219 24 19.601562 23.558594 19.601562 23.039062L19.601562 1.199219C19.601562.519531 19.078125 0 18.398438 0zM18.839844 23.039062C18.839844 23.121094 18.761719 23.199219 18.679688 23.199219L14.160156 23.199219C14.078125 23.199219 14 23.121094 14 23.039062L14 18 15.199219 18C15.441406 18 15.601562 17.839844 15.601562 17.601562 15.601562 17.359375 15.441406 17.199219 15.199219 17.199219L14 17.199219 14 16.398438 16 16.398438C16.238281 16.398438 16.398438 16.238281 16.398438 16 16.398438 15.761719 16.238281 15.601562 16 15.601562L14 15.601562 14 14.800781 15.199219 14.800781C15.441406 14.800781 15.601562 14.640625 15.601562 14.398438 15.601562 14.160156 15.441406 14 15.199219 14L14 14 14 13.199219 16 13.199219C16.238281 13.199219 16.398438 13.039062 16.398438 12.800781 16.398438 12.558594 16.238281 12.398438 16 12.398438L14 12.398438 14 11.601562 15.199219 11.601562C15.441406 11.601562 15.601562 11.441406 15.601562 11.199219 15.601562 10.960938 15.441406 10.800781 15.199219 10.800781L14 10.800781 14 10 16 10C16.238281 10 16.398438 9.839844 16.398438 9.601562 16.398438 9.359375 16.238281 9.199219 16 9.199219L14 9.199219 14 8.398438 15.199219 8.398438C15.441406 8.398438 15.601562 8.238281 15.601562 8 15.601562 7.761719 15.441406 7.601562 15.199219 7.601562L14 7.601562 14 6.800781 16 6.800781C16.238281 6.800781 16.398438 6.640625 16.398438 6.398438 16.398438 6.160156 16.238281 6 16 6L14 6 14 5.199219 15.199219 5.199219C15.441406 5.199219 15.601562 5.039062 15.601562 4.800781 15.601562 4.558594 15.441406 4.398438 15.199219 4.398438L14 4.398438 14 3.601562 16 3.601562C16.238281 3.601562 16.398438 3.441406 16.398438 3.199219 16.398438 2.960938 16.238281 2.800781 16 2.800781L14 2.800781 14 1.199219C14 .960938 14.160156.800781 14.398438.800781L18.441406.800781C18.679688.800781 18.839844.960938 18.839844 1.199219zM18.839844 23.039062"/>
    <path d="M 16.398438 19.199219 C 15.519531 19.199219 14.800781 19.921875 14.800781 20.800781 C 14.800781 21.679688 15.519531 22.398438 16.398438 22.398438 C 17.28125 22.398438 18 21.679688 18 20.800781 C 18 19.921875 17.28125 19.199219 16.398438 19.199219 Z M 16.398438 21.601562 C 15.960938 21.601562 15.601562 21.238281 15.601562 20.800781 C 15.601562 20.359375 15.960938 20 16.398438 20 C 16.839844 20 17.199219 20.359375 17.199219 20.800781 C 17.199219 21.238281 16.839844 21.601562 16.398438 21.601562 Z M 16.398438 21.601562"/>
</svg>

<svg xmlns="http://www.w3.org/2000/svg" width="32" height="32" viewBox="0 0 24 24">
    <path d="M10.8 19.504V2.16c0-.96-.8-1.762-1.76-1.762H6.16c-.96 0-1.762.801-1.762 1.762v17.442c0 .125.047.23.125.3l2.758 3.938c.078.082.2.16.32.16.118 0 .239-.078.32-.2l2.696-3.855a.386.386 0 0 0 .184-.343.408.408 0 0 0 0-.098zm-5.6-.305V6.4h2v12.8zM10 5.602H5.2V4H10zm-2 .796h2V19.2H8zM5.2 2.16c0-.52.44-.96.96-.96h2.88c.519 0 .96.44.96.96V3.2H5.2zm2.402 20.762L5.559 20H9.64zm0 0M18.398 0h-4c-.68 0-1.199.52-1.199 1.2v21.84c0 .519.442.96.961.96h4.52c.52 0 .922-.441.922-.96V1.2c0-.68-.524-1.2-1.204-1.2zm.442 23.04a.17.17 0 0 1-.16.16h-4.52a.17.17 0 0 1-.16-.16V18h1.2c.241 0 .402-.16.402-.398 0-.243-.16-.403-.403-.403H14v-.8h2c.238 0 .398-.16.398-.399 0-.238-.16-.398-.398-.398h-2V14.8h1.2c.241 0 .402-.16.402-.403 0-.238-.16-.398-.403-.398H14v-.8h2c.238 0 .398-.16.398-.4 0-.241-.16-.402-.398-.402h-2v-.796h1.2c.241 0 .402-.16.402-.403 0-.238-.16-.398-.403-.398H14V10h2c.238 0 .398-.16.398-.398 0-.243-.16-.403-.398-.403h-2v-.8h1.2c.241 0 .402-.16.402-.399 0-.238-.16-.398-.403-.398H14V6.8h2c.238 0 .398-.16.398-.403 0-.238-.16-.398-.398-.398h-2v-.8h1.2c.241 0 .402-.16.402-.4 0-.241-.16-.402-.403-.402H14v-.796h2c.238 0 .398-.16.398-.403 0-.238-.16-.398-.398-.398h-2V1.199c0-.238.16-.398.398-.398h4.043c.239 0 .399.16.399.398zm0 0"/>
    <path d="M16.398 19.2c-.878 0-1.597.722-1.597 1.6 0 .88.719 1.598 1.597 1.598.883 0 1.602-.718 1.602-1.597 0-.88-.719-1.602-1.602-1.602zm0 2.402a.801.801 0 0 1 0-1.602c.442 0 .801.36.801.8 0 .438-.36.802-.8.802zm0 0"/>
</svg>
